X: 2
T: Sailing Into Walpole's Marsh
R: reel
M: 4/4
L: 1/8
K: Ador
A3A~A2cA|G2EA GED2|EAA^G ABcd|egdB cedc|AG~G2 A2GA|GEDE G2EG|A2A^G ABcd|1egdB cedc:|egdB cAA2|:eg~g2 e2af|gedB cA~A2|eg~g2 ea~a2|age^c dafd|~g3^g a2fa|gedB cAAG|c2Gc AcGc|1eage d2z2:|2eage d2dB|


Tune 1341	Setting 1341

